src/assets/icons/shapes,fancy,outline-octagon_alt.svg

<svg width="48" height="48" viewBox="0 0 48 48" fill="none" xmlns="http://www.w3.org/2000/svg">
<path d="M28.3628 41.4891C25.8653 41.4831 22.5114 41.4778 19.666 41.4831C18.7322 41.4848 18.1097 41.4851 17.6258 41.4516C17.1588 41.4193 16.926 41.3604 16.7654 41.2933C16.6118 41.2291 16.4001 41.101 16.025 40.7682C15.6412 40.4276 15.1757 39.9555 14.4856 39.2541C12.6178 37.3553 10.2717 35.0565 8.52993 33.364C7.20832 32.0797 6.87834 31.7198 6.70908 31.3182C6.53982 30.9165 6.51272 30.4295 6.51662 28.5881C6.52275 25.6909 6.5173 22.2105 6.51105 19.6382C6.50881 18.7158 6.50822 18.1027 6.54139 17.6254C6.57331 17.1662 6.63164 16.9349 6.69959 16.7723C6.76414 16.6177 6.89188 16.4065 7.22213 16.0341C7.5606 15.6525 8.0296 15.1901 8.72738 14.5039C10.6297 12.6332 12.938 10.2773 14.636 8.52995C15.9203 7.20833 16.2802 6.87834 16.6818 6.70909C17.0835 6.53982 17.5706 6.51272 19.412 6.51662C22.3091 6.52275 25.7895 6.51729 28.3619 6.51105C29.2843 6.50881 29.8973 6.50822 30.3746 6.54139C30.8338 6.57331 31.0651 6.63164 31.2278 6.69959C31.3823 6.76414 31.5935 6.89187 31.9659 7.22212C32.3475 7.5606 32.8099 8.02959 33.496 8.72736C35.3668 10.6297 37.7227 12.938 39.4701 14.636C40.7917 15.9203 41.1217 16.2802 41.2909 16.6819C41.4602 17.0835 41.4873 17.5706 41.4834 19.412C41.477 22.4051 41.4831 26.021 41.4896 28.6148C41.4941 30.4309 41.4674 30.9087 41.2979 31.3113C41.1285 31.7135 40.8016 32.0702 39.4884 33.3462C37.7391 35.0459 35.3731 37.3639 33.4954 39.2734C32.8094 39.971 32.3473 40.4398 31.9658 40.7781C31.5936 41.1082 31.3824 41.2359 31.2279 41.3005C31.0651 41.3684 30.8339 41.4268 30.3749 41.4587C29.8977 41.4919 29.2849 41.4913 28.3628 41.4891Z" stroke="black" stroke-width="3"/>
</svg>

<svg xmlns="http://www.w3.org/2000/svg" width="48" height="48" fill="none" viewBox="0 0 48 48">
  <path stroke="#000" stroke-width="3" d="M28.363 41.49c-2.498-.007-5.852-.012-8.697-.007-.934.002-1.556.002-2.04-.031-.467-.033-.7-.092-.86-.159-.154-.064-.366-.192-.741-.525-.384-.34-.85-.813-1.54-1.514a402.658 402.658 0 00-5.955-5.89c-1.322-1.284-1.652-1.644-1.82-2.046-.17-.402-.197-.889-.193-2.73.006-2.897 0-6.378-.006-8.95-.002-.922-.003-1.535.03-2.013.032-.459.09-.69.159-.853.064-.154.192-.365.522-.738.339-.381.808-.844 1.505-1.53a401.93 401.93 0 005.909-5.974c1.284-1.322 1.644-1.652 2.046-1.82.402-.17.889-.197 2.73-.193 2.897.006 6.378 0 8.95-.006.922-.002 1.535-.003 2.013.03.459.032.69.09.853.159.154.064.365.192.738.522.381.339.844.808 1.53 1.505 1.87 1.903 4.227 4.211 5.974 5.909 1.322 1.284 1.652 1.644 1.82 2.046.17.402.197.889.193 2.73-.006 2.993 0 6.609.007 9.203.004 1.816-.023 2.294-.192 2.696-.17.402-.496.76-1.81 2.035-1.749 1.7-4.115 4.018-5.993 5.927-.686.698-1.148 1.167-1.53 1.505-.371.33-.583.458-.737.523-.163.067-.394.126-.853.158-.477.033-1.09.032-2.012.03z"/>
</svg>
